src/assets/images/template_image/9.svg

<svg width="48" height="48" viewBox="0 0 48 48" fill="none" xmlns="http://www.w3.org/2000/svg"><path opacity=".2" d="M24 46C36.1503 46 46 36.1503 46 24 46 11.8497 36.1503 2 24 2 11.8497 2 2 11.8497 2 24 2 36.1503 11.8497 46 24 46z" fill="#7c72f2"/><path d="M31.9091 18H15.3636C14.0636 18 13 19.0518 13 20.3636V31h2.3636C15.3636 32.95 16.9473 34.5455 18.9091 34.5455 20.8709 34.5455 22.4545 32.95 22.4545 31h6.5C28.9545 32.95 30.5382 34.5455 32.5 34.5455 34.4618 34.5455 36.0455 32.95 36.0455 31H39V25.0909L31.9091 18zm-13 14.7727C17.9282 32.7727 17.1364 31.9809 17.1364 31 17.1364 30.0191 17.9282 29.2273 18.9091 29.2273 19.89 29.2273 20.6818 30.0191 20.6818 31 20.6818 31.9809 19.89 32.7727 18.9091 32.7727zM32.5 32.7727C31.5191 32.7727 30.7273 31.9809 30.7273 31 30.7273 30.0191 31.5191 29.2273 32.5 29.2273 33.4809 29.2273 34.2727 30.0191 34.2727 31 34.2727 31.9809 33.4809 32.7727 32.5 32.7727zM29.5455 25.0909V20.3636H30.7273L35.4545 25.0909H29.5455z" fill="#7c72f2"/><path d="M13.995 14C11.235 14 9 16.24 9 19 9 21.76 11.235 24 13.995 24 16.76 24 19 21.76 19 19 19 16.24 16.76 14 13.995 14z" fill="#fff"/><path d="M13.995 13.5C12.4772 13.5 11.1037 14.1157 10.1094 15.1109 9.11493 16.1065 8.5 17.4817 8.5 19 8.5 20.5183 9.11493 21.8935 10.1094 22.8891 11.1037 23.8843 12.4772 24.5 13.995 24.5 15.5153 24.5 16.8912 23.8843 17.8872 22.8893 18.8838 21.8937 19.5 20.5184 19.5 19 19.5 17.4816 18.8838 16.1063 17.8872 15.1107 16.8912 14.1157 15.5153 13.5 13.995 13.5z" fill="#7c72f2" stroke="#e5e3fc"/></svg>

<svg width="48" height="48" fill="none" xmlns="http://www.w3.org/2000/svg"><path opacity=".2" d="M24 46c12.15 0 22-9.85 22-22S36.15 2 24 2 2 11.85 2 24s9.85 22 22 22z" fill="#7c72f2"/><path d="M31.91 18H15.363A2.363 2.363 0 0013 20.364V31h2.364a3.548 3.548 0 003.545 3.545A3.548 3.548 0 0022.455 31h6.5a3.548 3.548 0 003.545 3.545A3.548 3.548 0 0036.045 31H39v-5.91L31.91 18zm-13 14.773A1.77 1.77 0 0117.135 31c0-.98.792-1.773 1.773-1.773.981 0 1.773.792 1.773 1.773a1.77 1.77 0 01-1.773 1.773zm13.59 0A1.77 1.77 0 0130.727 31c0-.98.792-1.773 1.773-1.773.98 0 1.773.792 1.773 1.773a1.77 1.77 0 01-1.773 1.773zm-2.954-7.682v-4.727h1.181l4.728 4.727h-5.91z" fill="#7c72f2"/><path d="M13.995 14A4.998 4.998 0 009 19c0 2.76 2.235 5 4.995 5A5.003 5.003 0 0019 19c0-2.76-2.24-5-5.005-5z" fill="#fff"/><path d="M13.995 13.5a5.475 5.475 0 00-3.886 1.61A5.486 5.486 0 008.5 19c0 1.518.615 2.893 1.61 3.89a5.475 5.475 0 003.885 1.61 5.49 5.49 0 003.892-1.61A5.48 5.48 0 0019.5 19a5.48 5.48 0 00-1.613-3.89 5.49 5.49 0 00-3.892-1.61z" fill="#7c72f2" stroke="#e5e3fc"/></svg>
